X: 26
T: Missa Se mieulx ne vient &mdash; Gloria
C: Gaspar van Weerbeke
%%abc-version 2.0
%%abcx-abcm2ps-target-version 5.9.1 (29 Sep 2008)
%%abc-creator hum2abc beta
%%abcx-conversion-date 2022/03/06 13:05:55
%%abc-copyright Copyright 2014, Pavanello, Agnese
%%abc-edited-by Mair-Gruber, Roland
%%humdrum-veritas 2842601549
%%humdrum-veritas-data 2951694482
%%linebreak <none>
%%barnumbers 0
L: 1/4
M: 3/2
N: Derived from Gas0104b-Missa_Se_mieulx_ne_vient-Gloria.krn
%%staves [1 2 3 4]
V: 1 clef=treble
V: 2 clef=treble-8
V: 3 clef=treble-8
V: 4 clef=bass
K: C
[V:1] z6 | 
[V:2] D2DG2G | 
[V:3] z6 | 
[V:4] D,2B,,G,,B,,C, | 
[V:1] z2D2DG- | 
[V:2] A3/G//A//B2BB | 
[V:3] z6 | 
[V:4] A,,2G,,2G,2 | 
[V:1] GGA3/G//A//BB | 
[V:2] Bc>BAGd- | 
[V:3] z6 | 
[V:4] E,E,F,2G,3/F,/ | 
[V:1] BBc>BGd- | 
[V:2] dB2AB2 | 
[V:3] z6 | 
[V:4] D,2C,2B,,2 | 
[V:1] dB2ABG- | 
[V:2] zBd2BB | 
[V:3] z6 | 
[V:4] G,,2z2zG, | 
[V:1] GED2CD- | 
[V:2] c2B>GAB- | 
[V:3] z6 | 
[V:4] E,C,G,2z2 | 
[V:1] D/C/B,/A,/ C/D/B,A,2 | 
[V:2] B/A/G/F/ E/D/G2^F | 
[V:3] z6 | 
[V:4] G,,2A,,B,,C,D, | 
[V:1] G,DEEDF | 
[V:2] G2z2zd | 
[V:3] z6 | 
[V:4] E,B,,C,2D,2 | 
[V:1] GGA>GEE | 
[V:2] eedfgg | 
[V:3] z6 | 
[V:4] z2D,D,C,C, | 
[V:1] D2zd2c | 
[V:2] a>gede2 | 
[V:3] z6 | 
[V:4] F,D,G,_B,A,2 | 
[V:1] BA2G2^F | 
[V:2] d2dc/B/A2 | 
[V:3] D4D2 | 
[V:4] z6 | 
[V:1] G2zGEE | 
[V:2] GB>cd2^c | 
[V:3] G4A2 | 
[V:4] z6 | 
[V:1] DG>ABGA | 
[V:2] d2Gde^f | 
[V:3] B2>B2c3/B/ | 
[V:4] z6 | 
[V:1] B4zd | 
[V:2] g2zggg | 
[V:3] G6 | 
[V:4] G,,4G,,2 | 
[V:1] ddd>cA3/F/ | 
[V:2] g>fdGAB | 
[V:3] d4d2 | 
[V:4] G,,2G,,G,,D,2 | 
[V:1] G>FDGA2 | 
[V:2] c>ABG2^F | 
[V:3] e>dBdc2 | 
[V:4] C,2D,B,,A,,2 | 
[V:1] DDDG2G | 
[V:2] G4z2 | 
[V:3] B2G2z2 | 
[V:4] G,,6 | 
[V:1] A2B>cdc- | 
[V:2] DDDG2G | 
[V:3] z6 | 
[V:4] z2G,,G,,G,,C,- | 
[V:1] c/B/A/G<^FE/G2 | 
[V:2] AAA2Gc- | 
[V:3] z6 | 
[V:4] C,C,D,2E,C, | 
[V:1] zAFGA2 | 
[V:2] cAdc/B/AA | 
[V:3] z6 | 
[V:4] F,2D,G,2^F, | 
[V:1] B2AGc2 | 
[V:2] G>FDde^f | 
[V:3] Gd2BA2 | 
[V:4] G,2z2z2 | 
[V:1] BA2G2^F | 
[V:2] gd2BA2 | 
[V:3] G2^FGD2 | 
[V:4] G,,D,2G,,zD, | 
[V:1] G2z2z2 | 
[V:2] G2zg2^f | 
[V:3] zG^FGA2 | 
[V:4] B,,G,,D,E,D,2 | 
[V:1] D2DDE3/D//C// | 
[V:2] gGB2c2 | 
[V:3] G4z2 | 
[V:4] G,,4z2 | 
[V:1] D/C/B,/A,/G,DE2 | 
[V:2] Bd2c/B/A2 | 
[V:3] G2B2c2 | 
[V:4] z6 | 
[V:1] D2zd2^c | 
[V:2] zf2de2 | 
[V:3] Bd2c/B/A2 | 
[V:4] D,4zA, | 
[V:1] d>cBAG3/E/ | 
[V:2] d/c/B/A/GABG | 
[V:3] z6 | 
[V:4] D,G,2F,E,2 | 
[V:1] F>GAD_BA- | 
[V:2] A2FG2c- | 
[V:3] z2A_BA/G/F- | 
[V:4] D,>C,A,,G,,z2 | 
[V:1] AG2FGF | 
[V:2] c/_B/GA2GA- | 
[V:3] F/D/ED2zd- | 
[V:4] z4G,,D, | 
[V:1] GEF2zD | 
[V:2] AGA_BA_B | 
[V:3] d^cd4 | 
[V:4] E,2D,2F,G, | 
[V:1] F>GA_BAd- | 
[V:2] Ad>ef/g/ag- | 
[V:3] z2f3d | 
[V:4] D,2D,2F,G,- | 
[V:1] d^cd2A2 | 
[V:2] gef2d2- | 
[V:3] e2d2f2 | 
[V:4] G,A,D,2D,2 | 
[V:1] AAcB2A- | 
[V:2] dc2<g2e- | 
[V:3] ffed2c | 
[V:4] D,F,C,G,2A, | 
[V:1] AGA2Gc | 
[V:2] e2cfec | 
[V:3] B2A2z2 | 
[V:4] E,2F,2G,A,- | 
[V:1] BGA2DG- | 
[V:2] dBAcBG | 
[V:3] z2A2GB | 
[V:4] A,G,2F,G,2 | 
[V:1] GFG>ABA/B/ | 
[V:2] d2B2GA | 
[V:3] A2G2zd- | 
[V:4] D,2zG,2F, | 
[V:1] c/B/A/G/F2zA- | 
[V:2] G2A>Ff3/e/ | 
[V:3] dc2<d2c/B/ | 
[V:4] E,2D,4 | 
[V:1] AFG2c2 | 
[V:2] c4zc | 
[V:3] A2e4- | 
[V:4] F,2C,4 | 
[V:1] c>BGcBA- | 
[V:2] e>fg2df- | 
[V:3] e4d2- | 
[V:4] zC,E,>F,G,F, | 
[V:1] A/G/FED2G- | 
[V:2] f/e/d/c//B//AB2c | 
[V:3] d2cBG2 | 
[V:4] D,2zG,2E, | 
[V:1] GFED2B, | 
[V:2] d2zD/E/ F/E//F//G- | 
[V:3] A2G2z2 | 
[V:4] D,2G,,2zG,, | 
[V:1] A,2G,>A, B,/C/D- | 
[V:2] G^FGzG3/A/ | 
[V:3] z6 | 
[V:4] D,2E,>F,G,G,,- | 
[V:1] D/E/FGD>EF/G/ | 
[V:2] B/c/AG>A B/c/d- | 
[V:3] z6 | 
[V:4] G,,D,E,G,>F,D,- | 
[V:1] A>Bcd2B | 
[V:2] d/e/f/g/ed2g- | 
[V:3] z6 | 
[V:4] D,/C,/D,A,D,G,2 | 
[V:1] A2G4 ||  
[V:2] g^fg4 ||  
[V:3] z2G4 ||  
[V:4] D,2G,,4 ||  
[V:1] [M:2/2]z4 | 
[V:2] [M:2/2]G2AG | 
[V:3] [M:2/2]z4 | 
[V:4] [M:2/2]z4 | 
[V:1] G2AG | 
[V:2] c3B | 
[V:3] z4 | 
[V:4] z4 | 
[V:1] c3B | 
[V:2] A>B c/d/e | 
[V:3] z4 | 
[V:4] z4 | 
[V:1] AG/F/E2 | 
[V:2] fd2c | 
[V:3] z4 | 
[V:4] z4 | 
[V:1] D>E F/G/A | 
[V:2] Bd>cB/A/ | 
[V:3] z4 | 
[V:4] z4 | 
[V:1] BG2^F | 
[V:2] GBA2 | 
[V:3] z4 | 
[V:4] z4 | 
[V:1] Gd2c | 
[V:2] G2Bc | 
[V:3] z4 | 
[V:4] z4 | 
[V:1] Bd>cB/A/ | 
[V:2] d>efg- | 
[V:3] z4 | 
[V:4] z4 | 
[V:1] GBA2 | 
[V:2] g^f/e/^f2 | 
[V:3] z4 | 
[V:4] z2D,2 | 
[V:1] G2z2 | 
[V:2] g2zc- | 
[V:3] z4 | 
[V:4] E,G,2F,/E,/ | 
[V:1] z4 | 
[V:2] cB/A/Gd- | 
[V:3] z4 | 
[V:4] F,2G,2 | 
[V:1] z4 | 
[V:2] de2d/c/ | 
[V:3] z4 | 
[V:4] zC,2B,,/A,,/ | 
[V:1] z4 | 
[V:2] B>c d/B/c- | 
[V:3] z4 | 
[V:4] G,,D,2E,- | 
[V:1] z4 | 
[V:2] c/B/A2G | 
[V:3] z4 | 
[V:4] E,D,/C,/B,,2 | 
[V:1] z4 | 
[V:2] BA2G/F/ | 
[V:3] z4 | 
[V:4] zA,,2D,- | 
[V:1] G>ABA- | 
[V:2] E2DF- | 
[V:3] z4 | 
[V:4] D,C,D,2 | 
[V:1] AG/F/E2 | 
[V:2] F/G<AB/c | 
[V:3] z4 | 
[V:4] z4 | 
[V:1] DF>GA | 
[V:2] d2f2 | 
[V:3] z4 | 
[V:4] zD,>E,F, | 
[V:1] Bcd2 | 
[V:2] e2dg- | 
[V:3] z4 | 
[V:4] G,A,B,3/G,/ | 
[V:1] z4 | 
[V:2] gf>ed- | 
[V:3] z4 | 
[V:4] B,A,2G,/F,/ | 
[V:1] z4 | 
[V:2] d/B/cBe- | 
[V:3] z4 | 
[V:4] E,2G,2- | 
[V:1] zA>FG | 
[V:2] ed2^c | 
[V:3] z4 | 
[V:4] G,F,E,2 | 
[V:1] F_B>AA | 
[V:2] d3c | 
[V:3] z4 | 
[V:4] D,2z2 | 
[V:1] z4 | 
[V:2] _B2A2 | 
[V:3] z4 | 
[V:4] zG,2F, | 
[V:1] G>EFD | 
[V:2] z2zd- | 
[V:3] z4 | 
[V:4] E,2D,F, | 
[V:1] G2z2 | 
[V:2] dcBe- | 
[V:3] z4 | 
[V:4] E,2G,2- | 
[V:1] zA>FG | 
[V:2] ed2^c | 
[V:3] z4 | 
[V:4] G,F,E,2 | 
[V:1] F_B2A- | 
[V:2] d3c | 
[V:3] z4 | 
[V:4] D,G,D,F, | 
[V:1] AGAc- | 
[V:2] _B2A3/=B/ | 
[V:3] z4 | 
[V:4] G,2z2 | 
[V:1] cB/A/BA/B/ | 
[V:2] cd2c/d/ | 
[V:3] z4 | 
[V:4] F,2G,/F,/E,/D,/ | 
[V:1] c/B/A/G/AB- | 
[V:2] e/d/c/B/cd | 
[V:3] z4 | 
[V:4] C,F,2E,/D,/ | 
[V:1] BG2^F | 
[V:2] G2A2 | 
[V:3] z4 | 
[V:4] E,2D,2 | 
[V:1] G3F/E/ | 
[V:2] G>ABG- | 
[V:3] z4 | 
[V:4] E,D,/C,/B,,C,- | 
[V:1] D2CE- | 
[V:2] G/A/BE3/F/ | 
[V:3] z4 | 
[V:4] C,B,,C,3/D,/ | 
[V:1] EDB,C | 
[V:2] G/A/BGA- | 
[V:3] z4 | 
[V:4] E,/F,/G,2F,- | 
[V:1] DB,A,2 | 
[V:2] A/G/^F/E/^F2 | 
[V:3] z4 | 
[V:4] F,/E,/D,/C,/D,2 | 
[V:1] G,4 ||  
[V:2] G4 ||  
[V:3] z4 ||  
[V:4] G,,4 ||  
[V:1] G2G2 | 
[V:2] G2G2 | 
[V:3] z4 | 
[V:4] z4 | 
[V:1] E2D2 | 
[V:2] A2B2 | 
[V:3] z4 | 
[V:4] z2G,2 | 
[V:1] EG2F/E/ | 
[V:2] GB2A/G/ | 
[V:3] z4 | 
[V:4] G,2E,2 | 
[V:1] F2GA- | 
[V:2] A2Bc | 
[V:3] z4 | 
[V:4] D,2B,,A,, | 
[V:1] A/G/F/E/FE- | 
[V:2] A2FG- | 
[V:3] z4 | 
[V:4] D,>C,D,E, | 
[V:1] ED2^C | 
[V:2] GFE2 | 
[V:3] z4 | 
[V:4] C,D,A,,2 | 
[V:1] D2z2 | 
[V:2] DG2A | 
[V:3] z4 | 
[V:4] B,,2A,,2 | 
[V:1] G2A2 | 
[V:2] B2c2 | 
[V:3] z4 | 
[V:4] G,,B,,A,,2 | 
[V:1] Bd2c/B/ | 
[V:2] d>ef2- | 
[V:3] D4- | 
[V:4] G,,2D,2 | 
[V:1] AB2A/G/ | 
[V:2] fd2c/B/ | 
[V:3] D4- | 
[V:4] z2D,/E,/F,/G,/ | 
[V:1] ^FG2F | 
[V:2] AGA2 | 
[V:3] D4 | 
[V:4] A,B,2A, | 
[V:1] G4 | 
[V:2] G>A B/c/d- | 
[V:3] G4- | 
[V:4] B,2zB,- | 
[V:1] B2B2 | 
[V:2] dc/B/BA/G/ | 
[V:3] G4 | 
[V:4] B,A,/G,/G,F,/E,/ | 
[V:1] A2A2 | 
[V:2] c2c2 | 
[V:3] A4 | 
[V:4] F,G,2F, | 
[V:1] D>EFG- | 
[V:2] B>cdG- | 
[V:3] B4- | 
[V:4] G,2D,E,- | 
[V:1] GF/E/D2 | 
[V:2] G/A/B2A/G/ | 
[V:3] B2B2 | 
[V:4] E,D,/C,/B,,2 | 
[V:1] z2c2 | 
[V:2] FA>E^F | 
[V:3] c3B/A/ | 
[V:4] A,,4 | 
[V:1] B4 | 
[V:2] G2d2- | 
[V:3] G4- | 
[V:4] z4 | 
[V:1] B4 | 
[V:2] ddd2 | 
[V:3] G4 | 
[V:4] G,,4 | 
[V:1] B2B2 | 
[V:2] z4 | 
[V:3] d4 | 
[V:4] G,,2G,,2 | 
[V:1] A2B2 | 
[V:2] f2g2 | 
[V:3] d2d2 | 
[V:4] D,2G,,2 | 
[V:1] B2A2 | 
[V:2] d>ef2 | 
[V:3] d3d | 
[V:4] G,2F,2 | 
[V:1] B2AB- | 
[V:2] d>efg | 
[V:3] d2d2 | 
[V:4] G,2D,G,- | 
[V:1] BA/G<AB/ | 
[V:2] d>ef2 | 
[V:3] d2d2 | 
[V:4] G,F,/E,/D,2 | 
[V:1] c3B/A/ | 
[V:2] g3^f/e/ | 
[V:3] e3d/c/ | 
[V:4] C,3E, | 
[V:1] BcBc- | 
[V:2] ^fg^fg- | 
[V:3] dede- | 
[V:4] D,C,D,C,- | 
[V:1] cB2A | 
[V:2] gG2^F | 
[V:3] e/d/Bc2 | 
[V:4] C,/B,,/G,,A,,2 | 
[V:1] B4- | 
[V:2] G4 | 
[V:3] B3A | 
[V:4] G,,4- | 
[V:1] B4 | 
[V:2] z2d2- | 
[V:3] G4 | 
[V:4] G,,4 | 
[V:1] z4 | 
[V:2] df2e | 
[V:3] z4 | 
[V:4] D,3C, | 
[V:1] z4 | 
[V:2] dg>fe/d/ | 
[V:3] z4 | 
[V:4] D,E,C,D, | 
[V:1] z4 | 
[V:2] c2zd | 
[V:3] z4 | 
[V:4] E,2D,F,- | 
[V:1] Ad2c | 
[V:2] f2e2 | 
[V:3] z4 | 
[V:4] F,D,A,2 | 
[V:1] Bd>cB/A/ | 
[V:2] d>efg- | 
[V:3] z4 | 
[V:4] zB,>A,G,/F,/ | 
[V:1] B2A2 | 
[V:2] gf/e/f2 | 
[V:3] z4 | 
[V:4] G,2D,2 | 
[V:1] z4 | 
[V:2] d2cB | 
[V:3] z4 | 
[V:4] G,2E,D, | 
[V:1] z2DG- | 
[V:2] e2d2 | 
[V:3] z4 | 
[V:4] C,D,2E,- | 
[V:1] GFEA- | 
[V:2] cdcd | 
[V:3] z4 | 
[V:4] E,D,A,F, | 
[V:1] AG2^F | 
[V:2] ecd2 | 
[V:3] z4 | 
[V:4] E,2D,2 | 
[V:1] GB2A/G/ | 
[V:2] z2G2 | 
[V:3] G4 | 
[V:4] E,4 | 
[V:1] ^F2zG | 
[V:2] A2B2 | 
[V:3] d3c | 
[V:4] D,2G,2- | 
[V:1] A>Bc2 | 
[V:2] c2A2 | 
[V:3] A2A2 | 
[V:4] G,2^F,2 | 
[V:1] B3G | 
[V:2] Bd2e | 
[V:3] G3E | 
[V:4] G,G,,2C, | 
[V:1] AB2A/G/ | 
[V:2] cBd2- | 
[V:3] ^FGDG | 
[V:4] A,,G,,D,G,, | 
[V:1] AG2^F | 
[V:2] dcd2 | 
[V:3] ^FGA2 | 
[V:4] D,E,D,2 | 
[V:1] G4 | 
[V:2] B4 | 
[V:3] G4- | 
[V:4] G,,4 | 
[V:1] D2E2 | 
[V:2] z2G2 | 
[V:3] G4 | 
[V:4] B,,2C,2 | 
[V:1] DG2A | 
[V:2] B2c2 | 
[V:3] z4 | 
[V:4] B,,E,2F, | 
[V:1] B2z2 | 
[V:2] Bd2c/B/ | 
[V:3] z4 | 
[V:4] G,>F,D,G,- | 
[V:1] z2G2 | 
[V:2] A2GB- | 
[V:3] z4 | 
[V:4] G,^F,G,2 | 
[V:1] B2c2 | 
[V:2] BG2^F | 
[V:3] z4 | 
[V:4] G,,2A,,2 | 
[V:1] Bd2c/B/ | 
[V:2] G2d3/e/ | 
[V:3] G2B2 | 
[V:4] G,,2G,2 | 
[V:1] A2GB | 
[V:2] f2d3/e/ | 
[V:3] c2Bd- | 
[V:4] F,2G,2 | 
[V:1] AG2^F | 
[V:2] fd2d | 
[V:3] dc/B/A2 | 
[V:4] F,G,D,2 | 
[V:1] GD>EF/G/ | 
[V:2] BGd3/e/ | 
[V:3] GB2A/G/ | 
[V:4] E,G,2F,/E,/ | 
[V:1] A>Bcd | 
[V:2] f2ga- | 
[V:3] F>DED | 
[V:4] D,2G,F, | 
[V:1] BGc2 | 
[V:2] ag2^f | 
[V:3] dd2c | 
[V:4] G,2A,2 | 
[V:1] B2AB- | 
[V:2] g2z2 | 
[V:3] d4- | 
[V:4] G,2F,G,- | 
[V:1] BAGB | 
[V:2] GABG | 
[V:3] d4- | 
[V:4] G,F,G,2 | 
[V:1] Ad2c/B/ | 
[V:2] A2B2 | 
[V:3] d4 | 
[V:4] D,2G,2 | 
[V:1] A2A/G/F/E/ | 
[V:2] c2d2 | 
[V:3] f4- | 
[V:4] F,2D,2 | 
[V:1] D2A_B- | 
[V:2] d>cAG | 
[V:3] f2d2 | 
[V:4] D,>E,F,G,- | 
[V:1] B/A<c_B/A/G/ | 
[V:2] z2c2 | 
[V:3] e4 | 
[V:4] G,/F,/E,/D,/C,2 | 
[V:1] F3G | 
[V:2] A2_B2 | 
[V:3] d4 | 
[V:4] D,4 | 
[V:1] A4 | 
[V:2] A3d- | 
[V:3] f4 | 
[V:4] D,4 | 
[V:1] A2A2 | 
[V:2] dc/B/A2 | 
[V:3] f2f2 | 
[V:4] D,2D,2 | 
[V:1] D2d2 | 
[V:2] d>ef2 | 
[V:3] f4 | 
[V:4] D,4 | 
[V:1] c2B2- | 
[V:2] g4- | 
[V:3] e2d2- | 
[V:4] E,2G,2- | 
[V:1] BAA2- | 
[V:2] g2e3/f/ | 
[V:3] dAc2 | 
[V:4] G,2A,2 | 
[V:1] A2G2 | 
[V:2] eg>fe/d/ | 
[V:3] B4 | 
[V:4] E,4 | 
[V:1] A4 | 
[V:2] c2d2 | 
[V:3] A4 | 
[V:4] F,4 | 
[V:1] z2G2 | 
[V:2] e2d3/e/ | 
[V:3] G2B2 | 
[V:4] E,2G,2- | 
[V:1] A3G/A/ | 
[V:2] df>ed/c/ | 
[V:3] A4 | 
[V:4] G,2F,2 | 
[V:1] B2G2 | 
[V:2] B2Bc- | 
[V:3] G4 | 
[V:4] G,2E,2 | 
[V:1] c2B3/A/ | 
[V:2] cB/A/G2 | 
[V:3] z2d2- | 
[V:4] F,2G,2- | 
[V:1] G/F/G2E | 
[V:2] z2G2 | 
[V:3] d2c2 | 
[V:4] G,2E,2 | 
[V:1] F>G_BA- | 
[V:2] A2DF- | 
[V:3] d3c | 
[V:4] D,4 | 
[V:1] A/G/F/E/F2 | 
[V:2] F/G/A/B<cB//A// | 
[V:3] A4 | 
[V:4] z4 | 
[V:1] [M:3/2]G4G2- | 
[V:2] [M:3/2]G6- | 
[V:3] [M:3/2]e4e2- | 
[V:4] [M:3/2]C,6- | 
[V:1] G2c4 | 
[V:2] G2E4 | 
[V:3] e2e4 | 
[V:4] C,6 | 
[V:1] B4A2 | 
[V:2] G2B2c2 | 
[V:3] d4c2 | 
[V:4] G,,2G,2A,2 | 
[V:1] B6 | 
[V:2] d2e3d | 
[V:3] B4G2- | 
[V:4] G,2E,3F, | 
[V:1] G2F3E | 
[V:2] Bcd4 | 
[V:3] G2A4 | 
[V:4] G,2D,4 | 
[V:1] G2>F2D2 | 
[V:2] B2G4 | 
[V:3] G2>A2B2 | 
[V:4] E,2>F,2G,2 | 
[V:1] E2>D2B,2 | 
[V:2] G2E4 | 
[V:3] c2>B2G2 | 
[V:4] C,2>D,2E,2 | 
[V:1] C2>B,2E2 | 
[V:2] e4c2 | 
[V:3] A2>G2E2 | 
[V:4] A,,2>B,,2C,2 | 
[V:1] D2C4 | 
[V:2] B4A2 | 
[V:3] G4^F2 | 
[V:4] G,,2A,,4 | 
[V:1] B6- | 
[V:2] B4d2- | 
[V:3] G6- | 
[V:4] G,,4G,,2- | 
[V:1] B2c4 | 
[V:2] d2e4 | 
[V:3] G6 | 
[V:4] G,,2C,4 | 
[V:1] B2A3G | 
[V:2] d6- | 
[V:3] z6 | 
[V:4] D,2F,3E, | 
[V:1] F2E2D2 | 
[V:2] d2c2B2 | 
[V:3] z6 | 
[V:4] D,2A,,2B,,2 | 
[V:1] G4^F2 | 
[V:2] G2A4 | 
[V:3] z6 | 
[V:4] C,4D,2 | 
[V:1] G6- | 
[V:2] G6- | 
[V:3] z6 | 
[V:4] E,4B,,2 | 
[V:1] G6- | 
[V:2] G6- | 
[V:3] G6- | 
[V:4] C,2B,,2C,2 | 
[V:1] G6 |]  
[V:2] G6 |]  
[V:3] G6 |]  
[V:4] G,,6 |]  


